X: 40809
T: Traditional
R: reel
M: 4/4
K: Adorian
e2 A2 BA B2|e2 AB edeg|e2 A2 BA B2|~G3A GABd|
e2 A2 BA B2|e2 AB edeg|e2 de gd e2|~G3A GABd||
~A3B gd e2|~A3B edeg|~A3B gd e2|~G3A GABd|
~A3B gd e2|~A3B edeg|e2 de gd e2|~G3A GABd||

